src/assets/img/facebook.svg

<svg width="30" height="30" viewBox="0 0 30 30" fill="none" xmlns="http://www.w3.org/2000/svg">
<path d="M0 0V30H15.9768V18.4116H12.0712V13.6809H15.9768V9.70798C15.9768 6.81858 18.3191 4.47627 21.2085 4.47627H25.2916V8.73024H22.37C21.4518 8.73024 20.7075 9.47456 20.7075 10.3927V13.681H25.2182L24.5948 18.4117H20.7075V30H30V0H0Z" fill="#2E2E2E"/>
</svg>

<svg width="30" height="30" fill="none" xmlns="http://www.w3.org/2000/svg"><path d="M0 0v30h15.977V18.412H12.07V13.68h3.906V9.708a5.232 5.232 0 015.232-5.232h4.083V8.73H22.37c-.918 0-1.663.745-1.663 1.663v3.288h4.511l-.623 4.73h-3.887V30H30V0H0z" fill="#2E2E2E"/></svg>
